X:1
T:Braes of Acklebrie. BF11.03, The
T:Braes of Acklebrie. BF11.03, The
T:Hand of James Lishman
C:Hand of James Lishman
L:1/8
Q:1/2=100
M:2/2
K:C
V:1 treble 
V:1
 C2 CD EGGA | cded cAGc | A/A/A AG A2 a2 | ecge d2 c2 |"^NB" [CB]2 [CG]D EGGA | cded cAGc | %6
 AGGc FcEc | d/c/B c"^NB"[Eg] [Df]2 C2 :: efga gece | afdf edcG | A/A/A ag a2 b2 | ecge d2 c2 | %12
 efga gece | gfdf edcG | AcGc FcEc | d/c/B cE D2 C2 :| %16

